static/icons/companies/taicall-logo.svg

<svg width="38" height="24" viewBox="0 0 38 24" fill="none" xmlns="http://www.w3.org/2000/svg">
<path fill-rule="evenodd" clip-rule="evenodd" d="M28.3994 1.6H9.5998C7.29188 1.6 5.72189 1.6034 4.5462 1.76147C3.41654 1.91335 2.89331 2.18114 2.53721 2.53726C2.1811 2.89337 1.91331 3.41661 1.76143 4.54629C1.60336 5.722 1.59997 7.29203 1.59997 9.6V14.4C1.59997 16.708 1.60336 18.278 1.76143 19.4537C1.91331 20.5834 2.1811 21.1066 2.53721 21.4627C2.89331 21.8189 3.41654 22.0867 4.5462 22.2385C5.72189 22.3966 7.29188 22.4 9.5998 22.4H28.3994C30.7073 22.4 32.2773 22.3966 33.453 22.2385C34.5827 22.0867 35.1059 21.8189 35.462 21.4627C35.8181 21.1066 36.0859 20.5834 36.2378 19.4537C36.3959 18.278 36.3993 16.708 36.3993 14.4V9.6C36.3993 7.29203 36.3959 5.722 36.2378 4.54629C36.0859 3.41661 35.8181 2.89337 35.462 2.53726C35.1059 2.18114 34.5827 1.91335 33.453 1.76147C32.2773 1.6034 30.7073 1.6 28.3994 1.6ZM1.40586 1.40589C0 2.81177 0 5.07452 0 9.6V14.4C0 18.9255 0 21.1882 1.40586 22.5941C2.81172 24 5.07441 24 9.5998 24H28.3994C32.9248 24 35.1875 24 36.5934 22.5941C37.9992 21.1882 37.9992 18.9255 37.9992 14.4V9.6C37.9992 5.07452 37.9992 2.81177 36.5934 1.40589C35.1875 0 32.9248 0 28.3994 0H9.5998C5.07441 0 2.81172 0 1.40586 1.40589Z" fill="white"/>
<path fill-rule="evenodd" clip-rule="evenodd" d="M9.72332 6.32352C10.0969 5.94991 10.7026 5.94991 11.0763 6.32352L16.0761 11.3235C16.4498 11.6971 16.4498 12.3029 16.0761 12.6765L11.0763 17.6765C10.7026 18.0501 10.0969 18.0501 9.72332 17.6765C9.34972 17.3029 9.34972 16.6971 9.72332 16.3235L14.0467 12L9.72332 7.67648C9.34972 7.30287 9.34972 6.69713 9.72332 6.32352Z" fill="white"/>
<path d="M18.8488 17.0285C18.8488 16.4981 19.2787 16.0681 19.8091 16.0681H28.0264C28.5599 16.0681 28.9923 16.5006 28.9923 17.0341C28.9923 17.5675 28.5599 18 28.0264 18H23.9206L19.8065 17.9889C19.2772 17.9874 18.8488 17.5579 18.8488 17.0285Z" fill="white"/>
</svg>

<svg xmlns="http://www.w3.org/2000/svg" width="38" height="24" fill="none"><path fill="#fff" fill-rule="evenodd" d="M28.4 1.6H9.6c-2.308 0-3.878.003-5.054.161-1.13.152-1.653.42-2.009.776-.356.356-.624.88-.776 2.01C1.603 5.721 1.6 7.291 1.6 9.6v4.8c0 2.308.003 3.878.161 5.054.152 1.13.42 1.653.776 2.009.356.356.88.624 2.01.775 1.175.159 2.745.162 5.053.162h18.8c2.307 0 3.877-.003 5.053-.162 1.13-.151 1.653-.42 2.009-.775.356-.356.624-.88.776-2.01.158-1.175.161-2.745.161-5.053V9.6c0-2.308-.003-3.878-.161-5.054-.152-1.13-.42-1.653-.776-2.009-.356-.356-.88-.624-2.009-.776-1.176-.158-2.746-.161-5.054-.161M1.405 1.406C0 2.812 0 5.075 0 9.6v4.8c0 4.525 0 6.788 1.406 8.194C2.812 24 5.074 24 9.6 24h18.8c4.525 0 6.788 0 8.193-1.406C38 21.188 38 18.925 38 14.4V9.6c0-4.525 0-6.788-1.406-8.194C35.187 0 32.925 0 28.4 0H9.6C5.075 0 2.813 0 1.407 1.406" clip-rule="evenodd"/><path fill="#fff" fill-rule="evenodd" d="M9.723 6.324a.957.957 0 0 1 1.353 0l5 5a.957.957 0 0 1 0 1.353l-5 5a.957.957 0 0 1-1.353-1.354L14.047 12 9.723 7.676a.957.957 0 0 1 0-1.352" clip-rule="evenodd"/><path fill="#fff" d="M18.849 17.029c0-.53.43-.96.96-.96h8.217a.966.966 0 0 1 0 1.931h-4.105l-4.114-.011a.96.96 0 0 1-.958-.96"/></svg>
